src/webfont/svg/Facebook.svg

<svg viewBox="0 0 24 24" xmlns="http://www.w3.org/2000/svg" xmlns:xlink="http://www.w3.org/1999/xlink"><defs><path d="M12 2C6.5 2 2 6.49 2 12.02c0 5 3.66 9.15 8.44 9.9v-7H7.9v-2.9h2.54V9.81c0-2.51 1.49-3.89 3.78-3.89 1.09 0 2.23.19 2.23.19v2.47h-1.26c-1.24 0-1.63.77-1.63 1.56v1.88h2.78l-.45 2.9h-2.33v7a10 10 0 0 0 8.44-9.9C22 6.49 17.5 2 12 2Z" id="a"/></defs><use fill="#000" fill-rule="nonzero" xlink:href="#a"/></svg>

<?xml version="1.0" encoding="UTF-8"?><!DOCTYPE svg PUBLIC "-//W3C//DTD SVG 1.1//EN" "http://www.w3.org/Graphics/SVG/1.1/DTD/svg11.dtd"><svg xmlns="http://www.w3.org/2000/svg" xmlns:xlink="http://www.w3.org/1999/xlink" version="1.1" width="24" height="24" viewBox="0 0 24 24"><path d="M12 2.04C6.5 2.04 2 6.53 2 12.06C2 17.06 5.66 21.21 10.44 21.96V14.96H7.9V12.06H10.44V9.85C10.44 7.34 11.93 5.96 14.22 5.96C15.31 5.96 16.45 6.15 16.45 6.15V8.62H15.19C13.95 8.62 13.56 9.39 13.56 10.18V12.06H16.34L15.89 14.96H13.56V21.96A10 10 0 0 0 22 12.06C22 6.53 17.5 2.04 12 2.04Z" /></svg>
